X: 42
T: Affeyle Suçum
C: Şevki Bey
O: Turkey
F: http://compmusic.upf.edu/node/140
N: hicaz-uzzal--sarki--yuruksemai--affeyle_sucum--sevki_bey
N: makam= hicaz-uzzal
N: form= sarki
N: usul= yuruksemai = 6/8
M: 6/8
L: 1/16
K: C _7/8B ^f ^c 
Q: 1/4=90
%%MIDI tuningsystem comma53
a4g4 f4e2f2 g4z4  | g4f4 e4d2e2 =f8  | \
w:  ARANAĞME  |   | 
=f4e4 d4c2d2 c2B2A2B2  | 
w:   | 
c2d2e2f2 g2a2g2f2 f2e2e4  | a4g4 f4e2f2 g4z4  | \
w:   |  ARANAĞME  | 
g4f4 e4d2e2 =f8  | 
w:   | 
=f4e4 d4c2d2 c2B2A2B2  | e4d2c2 c2B2B2A2 A4z4  | \
w:   |   | 
d4d4 e4e4 e8  | 
w:  Af fey le  su çum   | 
e4{f}e2f2 g4f2e2 d8  | e4f4 g4a4 g2f2f2e2  | \
w:  ey  *  *  *  gül_ i  *  ter   |  ba *  şı ma  kak  | 
e6=f2 e2d2c2B2 A8  | 
w:  ma   SAZ  | 
d4d4 e4e4 e8  | e4{f}e2f2 g4f2e2 d8  | \
w:  Af fey le  su çum   |  ey  *  *  *  gül_ i  *  ter   | 
e4f4 g4a4 g2f2f2e2  | e6=f2 e2d2c2d2 e8  | 
w:  ba *  şı ma  kak  |  ma   SAZ  | 
d4a4 a4g2f2 g3fe4  | f4e2f2 g4f2e2 d8  | \
w:  Bir  bağ rı  ya *  nık   |  â *  *  şı kım  *  et  | 
e8 f4g4 a2=c'2=b2a2  | 
w:  ti ği me  bak  | 
a2g2f2e2 d2e2=f2e2 f4e2d2  | c4c4 d4c2B2 A8  | \
w:  ma    |  Bir  bağ rı  ya *  nık   | 
d8 e4=f4 e2d2c2B2  | 
w:  â şı kım  et  | 
A4B4 c4d4 c2{d}cBB2A2  | A8 a3gf2g2 a8  | \
w:  ti *  ği me  bak  |  ma   SAZ  | 
g4a4 a4a4 a8  | a2d'2=c'2=b2 b2a2a2g2 f3ed4  | 
w:  Gön lüm  ye ni den   |  â *  *  *  teş_ *  i  *  hic  | 
e4f4 g4a4 a2=c'2=b2a2  | a3gf2^e2 d3ef2e2 f8  | \
w:  râ *  ne  bı rak  |  ma    | 
f4f4 f4f2^e2 f8  | 
w:  Gön lüm  ye ni  *  den   | 
e2f2g2a2 a2g2g2f2 f3ed4  | e4f2e2 a4g2f2 g2f2f2e2  | 
w:  â *  *  *  teş_ *  i  *  hic  |  râ *  *  ne  bı *  rak  | 
e8 e=fedc2d2 e8  | d4a4 a4g2f2 g3fe4  | \
w:  ma   SAZ  |  Bir  bağ rı  ya *  nık   | 
f4e2f2 g4f2e2 d8  | 
w:  â *  *  şı kım  *  et  | 
e8 f4g4 a2=c'2=b2a2  | a2g2f2e2 d2e2=f2e2 f4e2d2  | \
w:  ti ği me  bak  |  ma    | 
c4c4 d4c2B2 A8  | 
w:  Bir  bağ rı  ya *  nık   | 
d8 e4=f4 e2d2c2B2  | A4B4 c4d4 c2{d}cBB2A2  | \
w:  â şı kım  et  |  ti *  ği me  bak  | 
A8 |
w:  ma    | 


